svg/ionicons/binoculars-sharp.svg

<svg width="512" height="512" viewBox="0 0 512 512" xmlns="http://www.w3.org/2000/svg">
<path fill-rule="evenodd" clip-rule="evenodd" d="M164 64C142.711 64 126.817 70.7578 114.917 82.8311C103.846 94.0643 97.3707 108.867 92.1251 122.106L23.2827 305.692C22.6101 307.388 21.5537 310.277 20.9692 312.016C20.7194 312.701 20.5192 313.392 20.3669 314.084C17.5262 323.559 16 333.601 16 344C16 401.438 62.5624 448 120 448C177.438 448 224 401.438 224 344V283.539L224.04 283.529L288 283.539V343.886L288 344C288 401.438 334.562 448 392 448C449.438 448 496 401.438 496 344C496 333.601 494.474 323.559 491.633 314.085C491.308 313 488.718 305.693 488.718 305.693L420.511 123.778L419.875 122.106C414.629 108.867 408.155 94.0643 397.083 82.8311C385.183 70.7578 369.289 64 348 64C329.564 64 314.066 71.239 303.389 83.6068C292.943 95.7067 288 111.638 288 128V162.809L224 162.809V128C224 111.638 219.057 95.7067 208.611 83.6068C197.934 71.239 182.436 64 164 64ZM56 344C56 308.654 84.6538 280 120 280C155.346 280 184 308.654 184 344C184 379.346 155.346 408 120 408C84.6538 408 56 379.346 56 344ZM328 344C328 308.654 356.654 280 392 280C427.346 280 456 308.654 456 344C456 379.346 427.346 408 392 408C356.654 408 328 379.346 328 344Z" />
</svg>

<svg xmlns="http://www.w3.org/2000/svg" width="512" height="512" viewBox="0 0 512 512"><path fill-rule="evenodd" d="M164 64c-21.289 0-37.183 6.758-49.083 18.831-11.071 11.233-17.546 26.036-22.792 39.275L23.283 305.692a155 155 0 00-2.314 6.324q-.374 1.029-.602 2.068A104 104 0 0016 344c0 57.438 46.562 104 104 104s104-46.562 104-104v-60.461l.04-.01 63.96.01V344c0 57.438 46.562 104 104 104s104-46.562 104-104c0-10.399-1.526-20.441-4.367-29.915-.325-1.085-2.915-8.392-2.915-8.392l-68.207-181.915-.636-1.672c-5.246-13.239-11.72-28.042-22.792-39.275C385.183 70.758 369.289 64 348 64c-18.436 0-33.934 7.239-44.611 19.607C292.943 95.707 288 111.638 288 128v34.809h-64V128c0-16.362-4.943-32.293-15.389-44.393C197.934 71.239 182.436 64 164 64M56 344c0-35.346 28.654-64 64-64s64 28.654 64 64-28.654 64-64 64-64-28.654-64-64m272 0c0-35.346 28.654-64 64-64s64 28.654 64 64-28.654 64-64 64-64-28.654-64-64" clip-rule="evenodd"/></svg>
